packages/assets/static/images/icons/folder-minus.svg

<svg width="24" height="24" viewBox="0 0 24 24" xmlns="http://www.w3.org/2000/svg">
<path d="M20.2499 6.7505H12.3103L9.74994 4.19018C9.61116 4.05029 9.44595 3.93938 9.26392 3.8639C9.0819 3.78841 8.88668 3.74987 8.68963 3.7505H3.74994C3.35211 3.7505 2.97058 3.90853 2.68928 4.18984C2.40797 4.47114 2.24994 4.85267 2.24994 5.2505V18.8086C2.25044 19.1909 2.40251 19.5573 2.6728 19.8276C2.9431 20.0979 3.30956 20.25 3.69181 20.2505H20.3334C20.7089 20.25 21.0689 20.1006 21.3345 19.835C21.6 19.5695 21.7494 19.2095 21.7499 18.8339V8.2505C21.7499 7.85267 21.5919 7.47114 21.3106 7.18984C21.0293 6.90853 20.6478 6.7505 20.2499 6.7505ZM8.68963 5.2505L10.1896 6.7505H3.74994V5.2505H8.68963ZM20.2499 18.7505H3.74994V8.2505H20.2499V18.7505ZM9.74994 12.7505H14.2499C14.4489 12.7505 14.6396 12.8295 14.7803 12.9702C14.9209 13.1108 14.9999 13.3016 14.9999 13.5005C14.9999 13.6994 14.9209 13.8902 14.7803 14.0308C14.6396 14.1715 14.4489 14.2505 14.2499 14.2505H9.74994C9.55103 14.2505 9.36026 14.1715 9.21961 14.0308C9.07896 13.8902 8.99994 13.6994 8.99994 13.5005C8.99994 13.3016 9.07896 13.1108 9.21961 12.9702C9.36026 12.8295 9.55103 12.7505 9.74994 12.7505Z"/>
</svg>

<svg viewBox="0 0 24 24" xmlns="http://www.w3.org/2000/svg" aria-hidden="true" fill="currentColor"><path d="M20.25 6.75h-7.94L9.75 4.19a1.5 1.5 0 0 0-1.06-.44H3.75a1.5 1.5 0 0 0-1.5 1.5v13.56a1.444 1.444 0 0 0 1.442 1.441h16.641a1.42 1.42 0 0 0 1.417-1.416V8.25a1.5 1.5 0 0 0-1.5-1.5M8.69 5.25l1.5 1.5H3.75v-1.5zm11.56 13.5H3.75V8.25h16.5zm-10.5-6h4.5a.75.75 0 1 1 0 1.5h-4.5a.75.75 0 1 1 0-1.5"/></svg>
